public/images/contacts/github-revert.svg

<svg xmlns="http://www.w3.org/2000/svg" width="1024" height="1024" fill="none" viewBox="0 0 1024 1024"><path fill="#fff" fill-rule="evenodd" d="M512 0C229.12 0 0 229.12 0 512c0 226.56 146.56 417.92 350.08 485.76 25.6 4.48 35.2-10.88 35.2-24.32 0-12.16-.64-52.48-.64-95.36-128.64 23.68-161.92-31.36-172.16-60.16-5.76-14.72-30.72-60.16-52.48-72.32-17.92-9.6-43.52-33.28-.64-33.92 40.32-.64 69.12 37.12 78.72 52.48 46.08 77.44 119.68 55.68 149.12 42.24 4.48-33.28 17.92-55.68 32.64-68.48-113.92-12.8-232.96-56.96-232.96-252.8 0-55.68 19.84-101.76 52.48-137.6-5.12-12.8-23.04-65.28 5.12-135.68 0 0 42.88-13.44 140.8 52.48 40.96-11.52 84.48-17.28 128-17.28s87.04 5.76 128 17.28c97.92-66.56 140.8-52.48 140.8-52.48 28.16 70.4 10.24 122.88 5.12 135.68 32.64 35.84 52.48 81.28 52.48 137.6 0 196.48-119.68 240-233.6 252.8 18.56 16 34.56 46.72 34.56 94.72 0 68.48-.64 123.52-.64 140.8 0 13.44 9.6 29.44 35.2 24.32C877.44 929.92 1024 737.92 1024 512 1024 229.12 794.88 0 512 0" clip-rule="evenodd"/></svg>

<svg width="1024" height="1024" viewBox="0 0 1024 1024" fill="none" xmlns="http://www.w3.org/2000/svg">
<path fill-rule="evenodd" clip-rule="evenodd" d="M512 0C229.12 0 0 229.12 0 512C0 738.56 146.56 929.92 350.08 997.76C375.68 1002.24 385.28 986.88 385.28 973.44C385.28 961.28 384.64 920.96 384.64 878.08C256 901.76 222.72 846.72 212.48 817.92C206.72 803.2 181.76 757.76 160 745.6C142.08 736 116.48 712.32 159.36 711.68C199.68 711.04 228.48 748.8 238.08 764.16C284.16 841.6 357.76 819.84 387.2 806.4C391.68 773.12 405.12 750.72 419.84 737.92C305.92 725.12 186.88 680.96 186.88 485.12C186.88 429.44 206.72 383.36 239.36 347.52C234.24 334.72 216.32 282.24 244.48 211.84C244.48 211.84 287.36 198.4 385.28 264.32C426.24 252.8 469.76 247.04 513.28 247.04C556.8 247.04 600.32 252.8 641.28 264.32C739.2 197.76 782.08 211.84 782.08 211.84C810.24 282.24 792.32 334.72 787.2 347.52C819.84 383.36 839.68 428.8 839.68 485.12C839.68 681.6 720 725.12 606.08 737.92C624.64 753.92 640.64 784.64 640.64 832.64C640.64 901.12 640 956.16 640 973.44C640 986.88 649.6 1002.88 675.2 997.76C877.44 929.92 1024 737.92 1024 512C1024 229.12 794.88 0 512 0Z" fill="white"/>
</svg>
